Newaita/actions/24/kdenlive-align-vert.svg

<svg height="24" viewBox="0 0 24 24" width="24" xmlns="http://www.w3.org/2000/svg"><g fill="#424242"><path d="m3.972656 12.59375v-.992188c0-.273437.222656-.496093.496094-.496093h14.882812c.273438 0 .496094.222656.496094.496093v.992188c0 .273438-.222656.496094-.496094.496094h-14.882812c-.273438 0-.496094-.222656-.496094-.496094zm0 0"/><path d="m7.933594 19.054688c0 .402343.246094.761718.617187.914062.375.152344.800781.0625 1.082031-.226562l2.277344-2.277344 2.277344 2.277344c.25.253906.617188.355468.960938.265624.34375-.089843.613281-.359374.703124-.703124.089844-.34375-.011718-.710938-.265624-.960938l-2.976563-2.976562c-.386719-.386719-1.011719-.386719-1.398437 0l-2.976563 2.976562c-.191406.1875-.300781.441406-.300781.710938zm0 0"/><path d="m7.933594 5.136719c0-.402344.246094-.765625.617187-.914063.375-.152344.800781-.0625 1.082031.226563l2.277344 2.277343 2.277344-2.277343c.25-.253907.617188-.359375.960938-.265625.34375.089844.613281.359375.703124.703125.089844.34375-.011718.710937-.265624.957031l-2.976563 2.976562c-.386719.386719-1.011719.386719-1.398437 0l-2.976563-2.976562c-.191406-.183594-.300781-.441406-.300781-.707031zm0 0"/></g></svg>

<svg xmlns="http://www.w3.org/2000/svg" xmlns:xlink="http://www.w3.org/1999/xlink" width="24px" height="24px" viewBox="0 0 24 24" version="1.1">
<g id="surface1">
     <defs>
  <style id="current-color-scheme" type="text/css">
   .ColorScheme-Text { color:#424242; } .ColorScheme-Highlight { color:#eeeeee; }
  </style>
 </defs>
<path style="fill:currentColor" class="ColorScheme-Text" d="M 3.972656 12.59375 L 3.972656 11.601562 C 3.972656 11.328125 4.195312 11.105469 4.46875 11.105469 L 19.351562 11.105469 C 19.625 11.105469 19.847656 11.328125 19.847656 11.601562 L 19.847656 12.59375 C 19.847656 12.867188 19.625 13.089844 19.351562 13.089844 L 4.46875 13.089844 C 4.195312 13.089844 3.972656 12.867188 3.972656 12.59375 Z M 3.972656 12.59375 "/>
     <defs>
  <style id="current-color-scheme" type="text/css">
   .ColorScheme-Text { color:#424242; } .ColorScheme-Highlight { color:#eeeeee; }
  </style>
 </defs>
<path style="fill:currentColor" class="ColorScheme-Text" d="M 7.933594 19.054688 C 7.933594 19.457031 8.179688 19.816406 8.550781 19.96875 C 8.925781 20.121094 9.351562 20.03125 9.632812 19.742188 L 11.910156 17.464844 L 14.1875 19.742188 C 14.4375 19.996094 14.804688 20.097656 15.148438 20.007812 C 15.492188 19.917969 15.761719 19.648438 15.851562 19.304688 C 15.941406 18.960938 15.839844 18.59375 15.585938 18.34375 L 12.609375 15.367188 C 12.222656 14.980469 11.597656 14.980469 11.210938 15.367188 L 8.234375 18.34375 C 8.042969 18.53125 7.933594 18.785156 7.933594 19.054688 Z M 7.933594 19.054688 "/>
     <defs>
  <style id="current-color-scheme" type="text/css">
   .ColorScheme-Text { color:#424242; } .ColorScheme-Highlight { color:#eeeeee; }
  </style>
 </defs>
<path style="fill:currentColor" class="ColorScheme-Text" d="M 7.933594 5.136719 C 7.933594 4.734375 8.179688 4.371094 8.550781 4.222656 C 8.925781 4.070312 9.351562 4.160156 9.632812 4.449219 L 11.910156 6.726562 L 14.1875 4.449219 C 14.4375 4.195312 14.804688 4.089844 15.148438 4.183594 C 15.492188 4.273438 15.761719 4.542969 15.851562 4.886719 C 15.941406 5.230469 15.839844 5.597656 15.585938 5.84375 L 12.609375 8.820312 C 12.222656 9.207031 11.597656 9.207031 11.210938 8.820312 L 8.234375 5.84375 C 8.042969 5.660156 7.933594 5.402344 7.933594 5.136719 Z M 7.933594 5.136719 "/>
</g>
</svg>
